app/assets/v2/images/home/realign-eth-arrow.svg

<svg fill="none" height="98" width="57" xmlns="http://www.w3.org/2000/svg"><g clip-rule="evenodd" fill="#3e00ff" fill-rule="evenodd"><path d="m30.529 1.65a2.573 2.573 0 0 0 -2.233-1.29c-.923 0-1.775.492-2.233 1.29l-25.573 44.59a2.558 2.558 0 0 0 .8 3.4l25.573 17.104c.867.58 2 .58 2.866 0l25.574-17.104a2.558 2.558 0 0 0 .8-3.401l-25.575-44.589zm-22.473 46.34 18.54 12.4v-21.862zm22.398 12.093 18.122-12.12-18.122-9.449v21.57zm18.266-16.383-18.266-31.85v22.323zm-22.124-32.648-18.776 32.74 18.777-9.584v-23.156z"/><path d="m53.746 62.45-.007.009-23.397 33.572a2.574 2.574 0 0 1 -4.224.001l-24.055-34.19a2.503 2.503 0 0 1 -.035-.053c-1.868-2.819 1.342-6.208 4.262-4.556l21.937 13.96 21.342-13.393c2.979-1.627 6.128 1.873 4.177 4.649zm-42.21 3.707 15.033 9.968v11.575l-15.033-21.544zm33.386-.034-14.495 20.799v-10.752c0-.11-.01-.216-.027-.32z"/></g></svg>

<svg width="57" height="98" fill="none" xmlns="http://www.w3.org/2000/svg"><path fill-rule="evenodd" clip-rule="evenodd" d="M30.529 1.65A2.573 2.573 0 0 0 28.296.36c-.923 0-1.775.492-2.233 1.29L.49 46.24a2.558 2.558 0 0 0 .8 3.4l25.573 17.104c.867.58 2 .58 2.866 0L55.303 49.64a2.558 2.558 0 0 0 .8-3.401L30.528 1.65zM8.056 47.99l18.54 12.4V38.528L8.056 47.99zm22.398 12.093l18.122-12.12-18.122-9.449v21.57zM48.72 43.7L30.454 11.85v22.323L48.72 43.7zM26.596 11.052L7.82 43.792l18.777-9.584V11.052z" fill="#3E00FF"/><path fill-rule="evenodd" clip-rule="evenodd" d="M53.746 62.45l-.007.009-23.397 33.572a2.574 2.574 0 0 1-4.224.001L2.063 61.842a2.503 2.503 0 0 1-.035-.053C.16 58.97 3.37 55.581 6.29 57.233l21.937 13.96L49.569 57.8c2.979-1.627 6.128 1.873 4.177 4.649zm-42.21 3.707l15.033 9.968V87.7L11.536 66.156zm33.386-.034L30.427 86.922V76.17c0-.11-.01-.216-.027-.32l14.522-9.727z" fill="#3E00FF"/></svg>
